X: 243
T: Qiuxing ku Zhangfu
L: 1/16
M: 2/4
K: Bb
c'2 f'2 d'2 d' c' [I:setbarnb 1]| 
b2c'4d'2 | 
f'2 g' f' d' f' d' c' | 
b2> g2 f g f2 | 
g2 b2 c'2 c' d' | 
f'2c'4g2 | 
b2> g2 f g f d | 
c8 |]

@@@ Tune index: 9117
